svg/vscode-codicons/comment-draft.svg

<svg width="16" height="16" viewBox="0 0 16 16" xmlns="http://www.w3.org/2000/svg" fill="currentColor"><path fill-rule="evenodd" clip-rule="evenodd" d="M14.5 2.00098H13V3.00098H14V4.00098H15V2.50098L14.5 2.00098ZM9 2.00098H11V3.00098H9V2.00098ZM5 2.00098H7V3.00098H5V2.00098ZM14 10.001V11.001V12.001H14.5L15 11.501V10.001H14ZM12 12.001V11.001H10V12.001H12ZM8 11.001H7.5L7.146 11.147L5 13.294V11.501L4.5 11.001H4V12.001V14.501L4.854 14.855L7.707 12.001H8V11.001ZM15 8.00098V6.00098H14V8.00098H15ZM2 11.001V10.001H1V11.501L1.5 12.001H2V11.001ZM2 8.00098V6.00098H1V8.00098H2ZM2 3.00098V4.00098H1V2.50098L1.5 2.00098H3V3.00098H2Z"/></svg>

<svg xmlns="http://www.w3.org/2000/svg" width="16" height="16" viewBox="0 0 16 16"><path fill-rule="evenodd" d="M14.5 2.001H13v1h1v1h1v-1.5l-.5-.5Zm-5.5 0h2v1H9v-1Zm-4 0h2v1H5v-1Zm9 8v2h.5l.5-.5v-1.5h-1Zm-2 2v-1h-2v1h2Zm-4-1h-.5l-.354.146L5 13.294v-1.793l-.5-.5H4v3.5l.854.354 2.853-2.854H8v-1Zm7-3v-2h-1v2h1Zm-13 3v-1H1v1.5l.5.5H2v-1Zm0-3v-2H1v2h1Zm0-5v1H1v-1.5l.5-.5H3v1H2Z" clip-rule="evenodd"/></svg>
